X:840
T:Morning Thrush, The
R:reel
C:James Ennis
Z:id:hn-reel-840
M:C|
L:1/8
K:D
|: bag | f2ef d2AF | dAAF Agfe | d2AF DF~F2 | ABdf egfe | 
dAAF dA~A2 | BAFA dDDE | (3FED FA defa |1 afef d :|2 afef d3e ||
|: dffe f2af | ~g3e fgfe | dcde faaf | ~g3f eAce |
dffe faaf | bfaf efdB | ADFA defa |1 afef d3c :|2 afef d2AF ||
|: d2AF BdAF | ~D3F ADFA | dFAF DF~F2 | ABdf egfe |
d2AF DF~F2 | AdFA dF~F2 | ABde fagb |1 afef d2AF :|2 afef d ||
P:variations
|: fag | f2ef d2AF | AdAF Aefe | dAAF dF~F2 | ABdf e2fe | 
dAAF DA~A2 | BAFA dADE | (3FED FA defa |1 afef d :|2 afef dABc ||
dcde faaf | gage fgfe | dffe faaf | gafg egfe |
dcde fa~a2 | bfaf eBdB | ADFA defa | afef d3A ||
dcde fdaf | ~g3e fgfe | d3e fdaf | g2fd ecde |
~f3e fa~a2 | bfaf efdB | ADFA defa | afef dABc ||
|: dAAF BAFA | DADF AF~F2 | dFFE DF~F2 | ABdf e2fe |
dAAF DF~F2 | ADFA dF~F2 | ABde fagb |1 afef d2AF :|2 afef d ||

